www/assets/images/test_icons/flags/TG.svg

<svg fill="none" height="15" viewBox="0 0 21 15" width="21" xmlns="http://www.w3.org/2000/svg" xmlns:xlink="http://www.w3.org/1999/xlink"><mask id="a" height="15" maskUnits="userSpaceOnUse" width="21" x="0" y="0"><path d="m19 0h-17c-1.10457 0-2 .89543-2 2v11c0 1.1046.89543 2 2 2h17c1.1046 0 2-.8954 2-2v-11c0-1.10457-.8954-2-2-2z" fill="#fff"/></mask><g mask="url(#a)"><path d="m19 0h-17c-1.10457 0-2 .89543-2 2v11c0 1.1046.89543 2 2 2h17c1.1046 0 2-.8954 2-2v-11c0-1.10457-.8954-2-2-2z" fill="#ffd400"/><g clip-rule="evenodd" fill-rule="evenodd"><path d="m7 0h14v3h-14zm0 6h14v3h-14zm-7 6h21v3h-21z" fill="#007558"/><path d="m0 0h9v9h-9z" fill="#d70f3b"/><path d="m4.44 5.897-1.508.793.288-1.68-1.22-1.187 1.686-.245.754-1.528.754 1.527 1.686.245-1.22 1.19.288 1.678" fill="#fff"/></g><path d="m19 .5h-17c-.82843 0-1.5.67157-1.5 1.5v11c0 .8284.67157 1.5 1.5 1.5h17c.8284 0 1.5-.6716 1.5-1.5v-11c0-.82843-.6716-1.5-1.5-1.5z" stroke="#000" stroke-opacity=".1"/></g></svg>

<svg width="21" height="15" viewBox="0 0 21 15" fill="none" xmlns="http://www.w3.org/2000/svg">
<mask id="mask0_3_31" style="mask-type:alpha" maskUnits="userSpaceOnUse" x="0" y="0" width="21" height="15">
<path d="M19 0H2C0.89543 0 0 0.89543 0 2V13C0 14.1046 0.89543 15 2 15H19C20.1046 15 21 14.1046 21 13V2C21 0.89543 20.1046 0 19 0Z" fill="white"/>
</mask>
<g mask="url(#mask0_3_31)">
<path d="M19 0H2C0.89543 0 0 0.89543 0 2V13C0 14.1046 0.89543 15 2 15H19C20.1046 15 21 14.1046 21 13V2C21 0.89543 20.1046 0 19 0Z" fill="#FFD400"/>
<path fill-rule="evenodd" clip-rule="evenodd" d="M7 0H21V3H7V0ZM7 6H21V9H7V6ZM0 12H21V15H0V12Z" fill="#007558"/>
<path fill-rule="evenodd" clip-rule="evenodd" d="M0 0H9V9H0V0Z" fill="#D70F3B"/>
<path fill-rule="evenodd" clip-rule="evenodd" d="M4.44 5.897L2.932 6.69L3.22 5.01L2 3.823L3.686 3.578L4.44 2.05L5.194 3.577L6.88 3.822L5.66 5.012L5.948 6.69" fill="white"/>
<path d="M19 0.5H2C1.17157 0.5 0.5 1.17157 0.5 2V13C0.5 13.8284 1.17157 14.5 2 14.5H19C19.8284 14.5 20.5 13.8284 20.5 13V2C20.5 1.17157 19.8284 0.5 19 0.5Z" stroke="black" stroke-opacity="0.1"/>
</g>
</svg>
